;FLAVOR:UltiGCode
;TIME:5512
;MATERIAL:10905
;MATERIAL2:0
;NOZZLE_DIAMETER:0.4
;MINX:-83.698
;MINY:-32.394
;MINZ:0.2
;MAXX:83.698
;MAXY:32.511
;MAXZ:12.6
;TARGET_MACHINE.NAME:Unknown
;Generated with Cura_SteamEngine 5.10.0
G28 ;Home
G1 Z15.0 F6000 ;Move the platform down 15mm
;Prime the extruder
G92 E0
G1 F200 E3
G92 E0
M82 ;absolute extrusion mode
G92 E0
G92 E0
G10
;LAYER_COUNT:83
;LAYER:0
M107
G0 F3600 X0.157 Y5.179 Z0.3
;TYPE:SKIRT
G11
G1 F1800 X0.095 Y18.347 E1.58018
G1 X-.106 Y20.208 E1.8048
G1 X-.932 Y22.906 E2.14339
G1 X-2.231 Y25.275 E2.4676
G1 X-4.079 Y27.516 E2.81616
G1 X-5.992 Y28.837 E3.09514
G1 X-6.723 Y29.157 E3.19089
G1 X-8.758 Y29.619 E3.44131
G1 X-10.776 Y29.547 E3.68362
G1 X-11.004 Y29.494 E3.71171
G1 X-11.238 Y29.773 E3.75541
G1 X-12.649 Y30.959 E3.9766
G1 X-14.164 Y31.78 E4.18338
G1 X-16.276 Y32.3 E4.44438
G1 X-58.346 Y32.3 E9.49278
G1 X-59.08 Y32.415 E9.58194
G1 X-61.589 Y32.244 E9.88372
G1 X-62.243 Y32.225 E9.96223
G1 X-63.42 Y32.081 E10.10452
G1 X-63.832 Y31.986 E10.15526
G1 X-65.255 Y31.781 E10.32778
G1 X-66.512 Y31.434 E10.48427
G1 X-67.52 Y30.9 E10.62115
G1 X-68.522 Y30.551 E10.74848
G1 X-69.623 Y29.837 E10.90595
G1 X-70.079 Y29.566 E10.9696
G1 X-71.732 Y28.658 E11.19592
G1 X-74.493 Y26.06 E11.65085
G1 X-76.453 Y23.702 E12.0188
G1 X-78.405 Y20.118 E12.50853
G1 X-79.54 Y16.369 E12.97858
G1 X-79.88 Y12.634 E13.42863
G1 X-79.897 Y11.105 E13.61212
G1 X-81.154 Y10.132 E13.80287
G1 X-82.123 Y9.158 E13.96774
G1 X-83.039 Y7.54 E14.19086
G1 X-83.697 Y5.481 E14.45025
G1 X-83.698 Y-25.122 E18.12261
G1 X-83.276 Y-27.179 E18.37459
G1 X-82.281 Y-28.95 E18.61835
G1 X-81.508 Y-29.948 E18.76983
G1 X-80.155 Y-31.04 E18.97848
G1 X-78.176 Y-32.026 E19.2438
G1 X-76.652 Y-32.248 E19.42861
G1 X-24.01 Y-32.3 E25.74565
G1 X-23.235 Y-32.394 E25.83934
G1 X-21.487 Y-32.23 E26.05002
G1 X-21.087 Y-32.248 E26.09807
G1 X-19.532 Y-32.158 E26.28498
G1 X-15.444 Y-30.931 E26.79716
G1 X-12.026 Y-29.094 E27.2628
G1 X-9.254 Y-26.806 E27.69412
G1 X-7.006 Y-23.983 E28.12716
G1 X-6.11 Y-22.464 E28.33879
G1 X-5.877 Y-21.298 E28.48148
G1 X8.352 Y-21.333 E30.18896
G1 X9.823 Y-24.069 E30.56173
G1 X12.129 Y-26.846 E30.99488
G1 X14.97 Y-29.17 E31.43534
G1 X18.261 Y-30.92 E31.88262
G1 X21.83 Y-31.979 E32.32936
G1 X25.387 Y-32.3 E32.75793
G1 X76.521 Y-32.3 E38.89401
G1 X78.579 Y-31.877 E39.14613
G1 X80.458 Y-30.811 E39.40537
G1 X81.35 Y-30.111 E39.54144
G1 X82.441 Y-28.754 E39.75038
G1 X83.442 Y-26.735 E40.0208
G1 X83.698 Y-24.494 E40.29147
G1 X83.628 Y5.3 E43.86676
G1 X83.417 Y6.627 E44.028
G1 X82.711 Y8.211 E44.23611
G1 X82.549 Y8.464 E44.27216
G1 X82.519 Y14.726 E45.02361
G1 X82.345 Y16.406 E45.22628
G1 X81.169 Y20.204 E45.70339
G1 X79.34 Y23.605 E46.16679
G1 X76.818 Y26.625 E46.63893
G1 X75.306 Y27.863 E46.87344
G1 X74.664 Y28.512 E46.98298
G1 X72.909 Y29.593 E47.23033
G1 X72.39 Y29.823 E47.29845
G1 X71.942 Y30.124 E47.36322
G1 X70.999 Y30.623 E47.49124
G1 X70.472 Y30.836 E47.55945
G1 X69.173 Y31.507 E47.7349
G1 X67.46 Y32.026 E47.94969
G1 X66.353 Y32.073 E48.08265
G1 X65.628 Y32.287 E48.17336
G1 X63.729 Y32.399 E48.40163
G1 X63.174 Y32.307 E48.46914
G1 X62.567 Y32.334 E48.54206
G1 X61.92 Y32.3 E48.6198
G1 X17.611 Y32.294 E53.93688
G1 X17.349 Y32.346 E53.96894
G1 X16.027 Y32.511 E54.12881
G1 X13.976 Y32.192 E54.37789
G1 X10.805 Y31.253 E54.77474
G1 X8.128 Y29.815 E55.13939
G1 X5.878 Y27.963 E55.48909
G1 X4.074 Y25.775 E55.82939
G1 X2.683 Y23.155 E56.18535
G1 X1.833 Y20.291 E56.54385
G1 X1.605 Y17.659 E56.86087
G1 X1.602 Y8.26 E57.98875
G1 X2.18 Y5.815 E58.29024
G1 X2.612 Y5.183 E58.3821
G1 X0.157 Y5.179 E58.6767
G0 F3600 X-.241 Y4.778
G1 F1800 X-.303 Y18.304 E60.29984
G1 X-.5 Y20.126 E60.51975
G1 X-1.303 Y22.751 E60.84916
G1 X-2.562 Y25.047 E61.16339
G1 X-4.355 Y27.221 E61.50155
G1 X-6.187 Y28.486 E61.7687
G1 X-6.849 Y28.776 E61.85543
G1 X-8.794 Y29.217 E62.09476
G1 X-10.762 Y29.147 E62.33107
G1 X-11.148 Y29.037 E62.37923
G1 X-11.495 Y29.467 E62.44554
G1 X-12.872 Y30.624 E62.66136
G1 X-14.312 Y31.405 E62.85794
G1 X-16.323 Y31.9 E63.10646
G1 X-58.376 Y31.9 E68.15282
G1 X-59.097 Y32.013 E68.2404
G1 X-61.575 Y31.844 E68.53845
G1 X-62.195 Y31.828 E68.61288
G1 X-63.331 Y31.691 E68.75018
G1 X-63.758 Y31.593 E68.80276
G1 X-65.148 Y31.395 E68.97124
G1 X-66.368 Y31.058 E69.12312
G1 X-67.365 Y30.53 E69.2585
G1 X-68.344 Y30.189 E69.38291
G1 X-69.405 Y29.501 E69.53465
G1 X-69.886 Y29.215 E69.6018
G1 X-71.498 Y28.33 E69.82248
G1 X-74.185 Y25.804 E70.26503
G1 X-76.123 Y23.473 E70.6288
G1 X-78.033 Y19.965 E71.10811
G1 X-79.146 Y16.289 E71.569
G1 X-79.48 Y12.63 E72.00991
G1 X-79.499 Y10.907 E72.21668
G1 X-80.87 Y9.85 E72.42442
G1 X-81.802 Y8.913 E72.58301
G1 X-82.67 Y7.38 E72.79441
G1 X-83.297 Y5.418 E73.04158
G1 X-83.298 Y-25.081 E76.70146
G1 X-82.896 Y-27.038 E76.94121
G1 X-81.965 Y-28.705 E77.17033
G1 X-81.22 Y-29.667 E77.31634
G1 X-79.938 Y-30.701 E77.51398
G1 X-78.056 Y-31.639 E77.76632
G1 X-76.594 Y-31.852 E77.94361
G1 X-23.987 Y-31.9 E84.25645
G1 X-23.229 Y-31.992 E84.34808
G1 X-21.492 Y-31.829 E84.55743
G1 X-21.069 Y-31.848 E84.60825
G1 X-19.603 Y-31.762 E84.78447
G1 X-15.596 Y-30.559 E85.28651
G1 X-12.255 Y-28.763 E85.74169
G1 X-9.539 Y-26.522 E86.16423
G1 X-7.351 Y-23.78 E86.58519
G1 X-6.488 Y-22.317 E86.78902
G1 X-6.204 Y-20.897 E86.96279
G1 X8.591 Y-20.934 E88.7382
G1 X10.154 Y-23.84 E89.13416
G1 X12.414 Y-26.562 E89.55871
G1 X15.194 Y-28.836 E89.9897
G1 X18.415 Y-30.549 E90.42748
G1 X21.905 Y-31.585 E90.86434
G1 X25.387 Y-31.9 E91.28389
G1 X76.479 Y-31.9 E97.41493
G1 X78.438 Y-31.497 E97.65493
G1 X80.211 Y-30.496 E97.89926
G1 X81.066 Y-29.825 E98.02968
G1 X82.103 Y-28.535 E98.2283
G1 X83.053 Y-26.62 E98.48482
G1 X83.298 Y-24.495 E98.74151
G1 X83.233 Y5.237 E102.30936
G1 X83.03 Y6.513 E102.4644
G1 X82.346 Y8.048 E102.66606
G1 X82.15 Y8.343 E102.70856
G1 X82.121 Y14.685 E103.46961
G1 X81.951 Y16.327 E103.6677
G1 X80.799 Y20.048 E104.13513
G1 X79.006 Y23.381 E104.58929
G1 X76.534 Y26.341 E105.05207
G1 X75.036 Y27.568 E105.28444
G1 X74.414 Y28.197 E105.39059
G1 X72.747 Y29.227 E105.62573
G1 X72.198 Y29.47 E105.69778
G1 X71.755 Y29.77 E105.76198
G1 X70.812 Y30.269 E105.89001
G1 X70.305 Y30.472 E105.95554
G1 X69.024 Y31.134 E106.12858
G1 X67.393 Y31.628 E106.33308
G1 X66.287 Y31.675 E106.46592
G1 X65.556 Y31.891 E106.55739
G1 X63.753 Y31.997 E106.77412
G1 X63.198 Y31.905 E106.84163
G1 X62.549 Y31.934 E106.91959
G1 X61.924 Y31.9 E106.9947
G1 X17.572 Y31.894 E112.31694
G1 X17.3 Y31.949 E112.35024
G1 X16.032 Y32.107 E112.50357
G1 X14.09 Y31.808 E112.73936
G1 X10.953 Y30.879 E113.13196
G1 X8.354 Y29.483 E113.48598
G1 X6.162 Y27.679 E113.82665
G1 X4.408 Y25.552 E114.15748
G1 X3.054 Y23.001 E114.50405
G1 X2.229 Y20.221 E114.85203
G1 X2.004 Y17.624 E115.16484
G1 X2.002 Y8.305 E116.28312
G1 X2.552 Y5.98 E116.56982
G1 X3.232 Y4.985 E116.71444
G1 X3.123 Y4.784 E116.74187
G1 X-.241 Y4.778 E117.14555
G0 F3600 X-.64 Y4.527
G1 F1800 X-.701 Y18.261 E118.79365
G1 X-.894 Y20.049 E119.00946
G1 X-1.672 Y22.592 E119.32858
G1 X-2.893 Y24.819 E119.63335
G1 X-4.631 Y26.926 E119.96111
G1 X-6.382 Y28.135 E120.21645
G1 X-6.975 Y28.395 E120.29415
G1 X-8.83 Y28.815 E120.52238
G1 X-10.748 Y28.747 E120.75269
G1 X-11.286 Y28.571 E120.82061
G1 X-11.782 Y29.186 E120.91542
G1 X-13.095 Y30.289 E121.1212
G1 X-14.46 Y31.03 E121.30758
G1 X-16.37 Y31.5 E121.54362
G1 X-58.406 Y31.5 E126.58794
G1 X-59.114 Y31.611 E126.67394
G1 X-61.561 Y31.444 E126.96826
G1 X-62.147 Y31.431 E127.0386
G1 X-63.283 Y31.294 E127.1759
G1 X-63.689 Y31.199 E127.22594
G1 X-65.042 Y31.009 E127.38989
G1 X-66.223 Y30.683 E127.53691
G1 X-67.208 Y30.161 E127.67068
G1 X-68.165 Y29.828 E127.79228
G1 X-69.187 Y29.165 E127.93846
G1 X-69.693 Y28.864 E128.00912
G1 X-71.261 Y28.003 E128.22378
G1 X-73.877 Y25.548 E128.65428
G1 X-75.793 Y23.244 E129.01387
G1 X-77.661 Y19.812 E129.48276
G1 X-78.752 Y16.209 E129.93451
G1 X-79.08 Y12.626 E130.36627
G1 X-79.102 Y10.65 E130.6034
G1 X-79.312 Y10.546 E130.63152
G1 X-80.586 Y9.568 E130.82426
G1 X-81.481 Y8.668 E130.97657
G1 X-82.301 Y7.22 E131.17625
G1 X-82.897 Y5.355 E131.4112
G1 X-82.898 Y-25.039 E135.05848
G1 X-82.516 Y-26.897 E135.28611
G1 X-81.649 Y-28.46 E135.50059
G1 X-80.932 Y-29.386 E135.64113
G1 X-79.721 Y-30.362 E135.82777
G1 X-77.936 Y-31.252 E136.06712
G1 X-76.536 Y-31.456 E136.23689
G1 X-23.964 Y-31.5 E142.54553
G1 X-23.223 Y-31.59 E142.63511
G1 X-21.497 Y-31.428 E142.84314
G1 X-21.051 Y-31.448 E142.89671
G1 X-19.674 Y-31.366 E143.06225
G1 X-15.748 Y-30.187 E143.55415
G1 X-12.484 Y-28.432 E143.99886
G1 X-9.826 Y-26.239 E144.41237
G1 X-7.664 Y-23.53 E144.82828
G1 X-6.867 Y-22.172 E145.01723
G1 X-6.531 Y-20.496 E145.22236
G1 X8.83 Y-20.535 E147.06568
G1 X10.488 Y-23.616 E147.48554
G1 X12.696 Y-26.276 E147.90038
G1 X15.418 Y-28.502 E148.32233
G1 X18.569 Y-30.178 E148.75061
G1 X21.981 Y-31.191 E149.17772
G1 X25.387 Y-31.5 E149.58812
G1 X76.437 Y-31.5 E155.71412
G1 X78.296 Y-31.118 E155.94186
G1 X79.964 Y-30.181 E156.17144
G1 X80.782 Y-29.539 E156.29622
G1 X81.765 Y-28.316 E156.48451
G1 X82.664 Y-26.504 E156.72724
G1 X82.898 Y-24.496 E156.96983
G1 X82.838 Y5.174 E160.53024
G1 X82.643 Y6.399 E160.67909
G1 X81.981 Y7.885 E160.8743
G1 X81.751 Y8.217 E160.92277
G1 X81.723 Y14.644 E161.69402
G1 X81.557 Y16.248 E161.88752
G1 X80.428 Y19.894 E162.34554
G1 X78.674 Y23.155 E162.78987
G1 X76.253 Y26.054 E163.24311
G1 X74.765 Y27.272 E163.47386
G1 X74.163 Y27.882 E163.57671
G1 X72.585 Y28.861 E163.79955
G1 X72.004 Y29.118 E163.87578
G1 X71.567 Y29.417 E163.93932
G1 X70.663 Y29.898 E164.0622
G1 X70.138 Y30.108 E164.13006
G1 X68.875 Y30.761 E164.30068
G1 X67.326 Y31.23 E164.49489
G1 X66.221 Y31.277 E164.62761
G1 X65.484 Y31.495 E164.71984
G1 X63.777 Y31.595 E164.92503
G1 X63.222 Y31.503 E164.99254
G1 X62.531 Y31.534 E165.07554
G1 X61.929 Y31.5 E165.1479
G1 X17.53 Y31.494 E170.47578
G1 X17.251 Y31.552 E170.50997
G1 X16.036 Y31.703 E170.65689
G1 X14.204 Y31.424 E170.87927
G1 X11.101 Y30.505 E171.26762
G1 X8.58 Y29.151 E171.61101
G1 X6.449 Y27.397 E171.94221
G1 X4.741 Y25.326 E172.26434
G1 X3.425 Y22.847 E172.60114
G1 X2.625 Y20.151 E172.93861
G1 X2.403 Y17.589 E173.2472
G1 X2.402 Y8.35 E174.35588
G1 X2.924 Y6.145 E174.62779
G1 X3.701 Y5.008 E174.79305
G1 X3.387 Y4.434 E174.87156
G1 X3.089 Y4.384 E174.90782
G1 X-.497 Y4.377 E175.33814
G1 X-.574 Y4.409 E175.34815
G1 X-.64 Y4.527 E175.36437
G0 F3600 X-1.009 Y4.368
G1 F1800 X-1.041 Y4.691 E175.40332
G1 X-1.099 Y18.218 E177.02658
G1 X-1.288 Y19.972 E177.23827
G1 X-2.041 Y22.433 E177.54711
G1 X-3.224 Y24.591 E177.84243
G1 X-4.907 Y26.631 E178.15978
G1 X-6.577 Y27.784 E178.40331
G1 X-7.101 Y28.014 E178.47198
G1 X-8.866 Y28.413 E178.68912
G1 X-10.734 Y28.347 E178.91342
G1 X-11.489 Y28.072 E179.00984
G1 X-11.701 Y28.449 E179.06175
G1 X-12.069 Y28.905 E179.13206
G1 X-13.321 Y29.957 E179.3283
G1 X-14.606 Y30.655 E179.50378
G1 X-16.416 Y31.1 E179.72745
G1 X-58.436 Y31.1 E184.76985
G1 X-59.131 Y31.209 E184.85427
G1 X-61.547 Y31.044 E185.14486
G1 X-62.138 Y31.031 E185.2158
G1 X-63.192 Y30.905 E185.34318
G1 X-63.619 Y30.805 E185.39581
G1 X-64.935 Y30.623 E185.55523
G1 X-66.075 Y30.308 E185.69716
G1 X-67.048 Y29.793 E185.82926
G1 X-67.987 Y29.466 E185.94858
G1 X-68.969 Y28.829 E186.08904
G1 X-69.488 Y28.52 E186.16152
G1 X-71.026 Y27.676 E186.37205
G1 X-71.915 Y26.834 E186.51898
G1 X-73.569 Y25.292 E186.79034
G1 X-75.463 Y23.015 E187.14575
G1 X-77.289 Y19.659 E187.60422
G1 X-78.358 Y16.13 E188.0467
G1 X-78.68 Y12.622 E188.46943
G1 X-78.705 Y10.387 E188.73765
G1 X-79.069 Y10.228 E188.78531
G1 X-80.302 Y9.286 E188.97151
G1 X-81.16 Y8.423 E189.11755
G1 X-81.932 Y7.06 E189.30552
G1 X-82.497 Y5.292 E189.52825
G1 X-82.498 Y-24.997 E193.16293
G1 X-82.136 Y-26.757 E193.37855
G1 X-81.299 Y-28.266 E193.58562
G1 X-80.647 Y-29.102 E193.71284
G1 X-79.501 Y-30.025 E193.88942
G1 X-77.816 Y-30.865 E194.11535
G1 X-76.478 Y-31.06 E194.27761
G1 X-23.941 Y-31.1 E200.58205
G1 X-23.217 Y-31.188 E200.66957
G1 X-21.502 Y-31.027 E200.87628
G1 X-21.033 Y-31.048 E200.93261
G1 X-19.745 Y-30.97 E201.08745
G1 X-15.9 Y-29.815 E201.56922
G1 X-12.713 Y-28.101 E202.00346
G1 X-10.113 Y-25.956 E202.40794
G1 X-7.977 Y-23.28 E202.81881
G1 X-7.246 Y-22.028 E202.99278
G1 X-6.859 Y-20.095 E203.22935
G1 X8.709 Y-20.135 E205.09751
G1 X9.111 Y-20.082 E205.14617
G1 X9.206 Y-20.389 E205.18473
G1 X10.82 Y-23.389 E205.59353
G1 X12.981 Y-25.992 E205.9995
G1 X15.642 Y-28.168 E206.41199
G1 X18.723 Y-29.807 E206.83077
G1 X22.057 Y-30.797 E207.24812
G1 X25.387 Y-31.1 E207.64937
G1 X76.395 Y-31.1 E213.77033
G1 X78.156 Y-30.738 E213.98607
G1 X79.717 Y-29.866 E214.20063
G1 X80.498 Y-29.253 E214.31977
G1 X81.427 Y-28.097 E214.49774
G1 X82.275 Y-26.389 E214.72657
G1 X82.498 Y-24.497 E214.95518
G1 X82.443 Y5.111 E218.50815
G1 X82.256 Y6.285 E218.6508
G1 X81.616 Y7.722 E218.83957
G1 X81.352 Y8.088 E218.89373
G1 X81.325 Y14.603 E219.67553
G1 X81.163 Y16.169 E219.86446
G1 X80.057 Y19.74 E220.31306
G1 X78.342 Y22.929 E220.74757
G1 X75.969 Y25.77 E221.19177
G1 X74.489 Y26.982 E221.42132
G1 X73.91 Y27.568 E221.52018
G1 X72.423 Y28.495 E221.73045
G1 X71.81 Y28.766 E221.81088
G1 X71.378 Y29.064 E221.87385
G1 X70.515 Y29.526 E221.99132
G1 X69.976 Y29.741 E222.06096
G1 X68.726 Y30.388 E222.22986
G1 X67.259 Y30.832 E222.41378
G1 X66.154 Y30.879 E222.5465
G1 X65.411 Y31.099 E222.63949
G1 X63.801 Y31.193 E222.83302
G1 X63.245 Y31.101 E222.90065
G1 X62.513 Y31.134 E222.98858
G1 X61.936 Y31.1 E223.05794
G1 X17.49 Y31.094 E228.39146
G1 X17.202 Y31.155 E228.42678
G1 X16.043 Y31.299 E228.56693
G1 X14.318 Y31.04 E228.77625
G1 X11.249 Y30.131 E229.16035
G1 X8.806 Y28.819 E229.49311
G1 X6.736 Y27.115 E229.81485
G1 X5.074 Y25.1 E230.12828
G1 X3.796 Y22.693 E230.45531
G1 X3.021 Y20.081 E230.78226
G1 X2.802 Y17.554 E231.08664
G1 X2.802 Y8.396 E232.1856
G1 X3.296 Y6.31 E232.44284
G1 X4.207 Y4.978 E232.63649
G1 X4.013 Y4.745 E232.67287
G1 X3.719 Y4.2 E232.74718
G1 X3.612 Y4.093 E232.76534
G1 X3.415 Y4.013 E232.79085
G1 X3.105 Y3.984 E232.82822
G1 X-.578 Y3.977 E233.27018
G1 X-.855 Y4.093 E233.30621
G1 X-1.009 Y4.368 E233.34403
G0 F3600 X-1.401 Y4.267
G1 F1800 X-1.441 Y4.672 E233.39287
G1 X-1.497 Y18.175 E235.01325
G1 X-1.682 Y19.896 E235.22096
G1 X-2.41 Y22.274 E235.51939
G1 X-3.555 Y24.363 E235.80525
G1 X-5.183 Y26.336 E236.11221
G1 X-6.772 Y27.433 E236.34391
G1 X-7.227 Y27.633 E236.40356
G1 X-8.902 Y28.011 E236.60961
G1 X-10.657 Y27.949 E236.82034
G1 X-11.675 Y27.578 E236.95036
G1 X-12.012 Y28.198 E237.03504
G1 X-12.356 Y28.624 E237.10075
G1 X-13.547 Y29.625 E237.28744
G1 X-14.751 Y30.279 E237.45186
G1 X-16.463 Y30.7 E237.66342
G1 X-58.466 Y30.7 E242.70378
G1 X-59.148 Y30.807 E242.78662
G1 X-61.533 Y30.644 E243.07349
G1 X-62.129 Y30.631 E243.14503
G1 X-63.101 Y30.515 E243.2625
G1 X-63.538 Y30.413 E243.31635
G1 X-64.829 Y30.237 E243.4727
G1 X-65.93 Y29.933 E243.60976
G1 X-66.891 Y29.424 E243.74026
G1 X-67.808 Y29.105 E243.85677
G1 X-68.751 Y28.493 E243.99167
G1 X-69.296 Y28.169 E244.06775
G1 X-70.79 Y27.349 E244.27226
G1 X-71.642 Y26.541 E244.41317
G1 X-73.296 Y24.999 E244.68452
G1 X-75.131 Y22.788 E245.02932
G1 X-76.917 Y19.506 E245.4777
G1 X-77.964 Y16.051 E245.91091
G1 X-78.28 Y12.618 E246.32462
G1 X-78.308 Y10.113 E246.62524
G1 X-78.826 Y9.91 E246.692
G1 X-80.059 Y8.968 E246.8782
G1 X-80.838 Y8.18 E247.01116
G1 X-81.563 Y6.9 E247.18769
G1 X-82.097 Y5.229 E247.3982
G1 X-82.098 Y-24.955 E251.02028
G1 X-81.756 Y-26.617 E251.2239
G1 X-80.949 Y-28.072 E251.42356
G1 X-80.363 Y-28.817 E251.5373
G1 X-79.281 Y-29.688 E251.70398
G1 X-77.696 Y-30.478 E251.9165
G1 X-76.42 Y-30.664 E252.07124
G1 X-23.917 Y-30.7 E258.3716
G1 X-23.211 Y-30.786 E258.45694
G1 X-21.513 Y-30.626 E258.66161
